X: 26526
T: Michael Ward
R: reel
M: 4/4
K: Dminor
D2 DE TF2 GA|BAGF TE>D C2|d2 dA B2 AG|AGFG A4|
DEFG AGAF|GFGE FEFD|Tc2 F2 Tc2 A2|agfe f4|
Te2 Af Te2 c2|dcde Tc2 A2|AGFE F2 F/G/A|A6 z||
f/g/|agfa gfeg|f2 Ted cAcA|f2 f/g/a FAFA|G2 A2 d4|
f2 e/f/g fcAc|fcfg abag|f2 ed cdAG|FEFG A4|
D2 DE FEFD|EDEF GFGE|FEFG AGAF|G2 A2 TB4|
A2 dA BAGB|AGFA TG2 FE|FEDF ED^CE|A2 A,2 D4||

